packages/bezier-icons/icons/trash.svg

<svg width="24" height="24" viewBox="0 0 24 24" fill="none" xmlns="http://www.w3.org/2000/svg">
<path fill-rule="evenodd" clip-rule="evenodd" d="M14.0002 4.00009H10.0002V5.00009H14.0002V4.00009ZM16.0002 5.00009H20.0002V7.00009H19V18C19 20.2091 17.2091 22 15 22H9C6.79086 22 5 20.2091 5 18V7.00009H4.00021V5.00009H8.00021V3.50009C8.00021 2.67181 8.67193 2.00009 9.50021 2.00009H14.5002C15.3285 2.00009 16.0002 2.67181 16.0002 3.50009V5.00009ZM7 18V7.00009H17V18C17 19.1046 16.1046 20 15 20H9C7.89543 20 7 19.1046 7 18ZM9.00021 10.0001V17.0001H11.0002V10.0001H9.00021ZM13.0002 17.0001V10.0001H15.0002V17.0001H13.0002Z" fill="#313234"/>
</svg>

<svg xmlns="http://www.w3.org/2000/svg" width="24" height="24" fill="none" viewBox="0 0 24 24"><path fill="#313234" fill-rule="evenodd" d="M14 4h-4v1h4zm2 1h4v2h-1v11a4 4 0 0 1-4 4H9a4 4 0 0 1-4-4V7H4V5h4V3.5A1.5 1.5 0 0 1 9.5 2h5A1.5 1.5 0 0 1 16 3.5zM7 18V7h10v11a2 2 0 0 1-2 2H9a2 2 0 0 1-2-2m2-8v7h2v-7zm4 7v-7h2v7z" clip-rule="evenodd"/></svg>
